svgs/light/browsers.svg

<svg xmlns="http://www.w3.org/2000/svg" viewBox="0 0 576 512"><!-- Font Awesome Pro 6.0.0-alpha2 by @fontawesome - https://fontawesome.com License - https://fontawesome.com/license (Commercial License) --><path d="M464 480H96C60.654 480 32 451.346 32 416V112C32 103.164 24.836 96 16 96S0 103.164 0 112V416C0 469.02 42.98 512 96 512H464C472.836 512 480 504.836 480 496S472.836 480 464 480ZM512 0H160C124.654 0 96 28.654 96 64V352C96 387.346 124.654 416 160 416H512C547.346 416 576 387.346 576 352V64C576 28.654 547.346 0 512 0ZM128 64C128 46.326 142.326 32 160 32H224V96H128V64ZM544 352C544 369.674 529.674 384 512 384H160C142.326 384 128 369.674 128 352V128H544V352ZM544 96H256V32H512C529.674 32 544 46.326 544 64V96Z"/></svg>

<svg xmlns="http://www.w3.org/2000/svg" viewBox="0 0 576 512"><!--! Font Awesome Pro 6.4.0 by @fontawesome - https://fontawesome.com License - https://fontawesome.com/license (Commercial License) Copyright 2023 Fonticons, Inc. --><path d="M512 32c17.7 0 32 14.3 32 32V96H256V32H512zM160 32h64V96H128V64c0-17.7 14.3-32 32-32zM128 352V128H240 544V352c0 17.7-14.3 32-32 32H160c-17.7 0-32-14.3-32-32zM160 0C124.7 0 96 28.7 96 64V352c0 35.3 28.7 64 64 64H512c35.3 0 64-28.7 64-64V64c0-35.3-28.7-64-64-64H160zM32 112c0-8.8-7.2-16-16-16s-16 7.2-16 16V384c0 70.7 57.3 128 128 128H464c8.8 0 16-7.2 16-16s-7.2-16-16-16H128c-53 0-96-43-96-96V112z"/></svg>
